dist/img/icons/360.svg

<svg width="65" height="37" viewBox="0 0 65 37" fill="none" xmlns="http://www.w3.org/2000/svg">
<path fill-rule="evenodd" clip-rule="evenodd" d="M56 8C58.2091 8 60 6.20914 60 4C60 1.79086 58.2091 0 56 0C53.7908 0 52 1.79086 52 4C52 6.20914 53.7908 8 56 8ZM58 4C58 5.10457 57.1045 6 56 6C54.8954 6 54 5.10457 54 4C54 2.89543 54.8954 2 56 2C57.1045 2 58 2.89543 58 4Z" fill="#414141"/>
<path fill-rule="evenodd" clip-rule="evenodd" d="M32.4968 14.632C33.6008 14.632 34.5928 14.848 35.4728 15.28C36.3528 15.696 37.0408 16.296 37.5368 17.08C38.0328 17.864 38.2808 18.768 38.2808 19.792C38.2808 20.88 38.0088 21.84 37.4648 22.672C36.9208 23.488 36.1848 24.12 35.2568 24.568C34.3288 25.016 33.2888 25.24 32.1368 25.24C29.8328 25.24 28.0408 24.52 26.7608 23.08C25.4968 21.64 24.8648 19.576 24.8648 16.888C24.8648 15 25.2088 13.392 25.8968 12.064C26.5848 10.72 27.5448 9.704 28.7768 9.016C30.0248 8.312 31.4648 7.96 33.0968 7.96C33.9608 7.96 34.7688 8.056 35.5208 8.248C36.2888 8.424 36.9528 8.688 37.5128 9.04L36.3608 11.392C35.5288 10.848 34.4648 10.576 33.1688 10.576C31.5528 10.576 30.2888 11.072 29.3768 12.064C28.4648 13.056 28.0088 14.488 28.0088 16.36V16.384C28.5048 15.808 29.1368 15.376 29.9048 15.088C30.6728 14.784 31.5368 14.632 32.4968 14.632ZM31.9688 22.792C32.9448 22.792 33.7368 22.536 34.3448 22.024C34.9528 21.496 35.2568 20.8 35.2568 19.936C35.2568 19.056 34.9528 18.36 34.3448 17.848C33.7368 17.336 32.9208 17.08 31.8968 17.08C30.8888 17.08 30.0648 17.352 29.4248 17.896C28.8008 18.44 28.4888 19.128 28.4888 19.96C28.4888 20.776 28.7928 21.456 29.4008 22C30.0248 22.528 30.8808 22.792 31.9688 22.792Z" fill="#414141"/>
<path d="M17.208 15.136C18.76 15.328 19.944 15.856 20.76 16.72C21.576 17.584 21.984 18.664 21.984 19.96C21.984 20.936 21.736 21.824 21.24 22.624C20.744 23.424 19.992 24.064 18.984 24.544C17.992 25.008 16.776 25.24 15.336 25.24C14.136 25.24 12.976 25.072 11.856 24.736C10.752 24.384 9.80805 23.904 9.02405 23.296L10.368 20.872C10.976 21.384 11.712 21.792 12.576 22.096C13.456 22.384 14.36 22.528 15.288 22.528C16.392 22.528 17.256 22.304 17.88 21.856C18.52 21.392 18.84 20.768 18.84 19.984C18.84 19.2 18.536 18.592 17.928 18.16C17.336 17.712 16.424 17.488 15.192 17.488H13.656V15.352L17.472 10.816H9.84005V8.2H21.288V10.288L17.208 15.136Z" fill="#414141"/>
<path fill-rule="evenodd" clip-rule="evenodd" d="M44.1597 24.232C45.2157 24.904 46.4157 25.24 47.7597 25.24C49.1037 25.24 50.3037 24.904 51.3597 24.232C52.4317 23.544 53.2717 22.552 53.8797 21.256C54.4877 19.944 54.7917 18.392 54.7917 16.6C54.7917 14.808 54.4877 13.264 53.8797 11.968C53.2717 10.656 52.4317 9.664 51.3597 8.992C50.3037 8.304 49.1037 7.96 47.7597 7.96C46.4157 7.96 45.2157 8.304 44.1597 8.992C43.1037 9.664 42.2717 10.656 41.6637 11.968C41.0557 13.264 40.7517 14.808 40.7517 16.6C40.7517 18.392 41.0557 19.944 41.6637 21.256C42.2717 22.552 43.1037 23.544 44.1597 24.232ZM50.5917 21.04C49.9037 22.032 48.9597 22.528 47.7597 22.528C46.5757 22.528 45.6317 22.032 44.9277 21.04C44.2397 20.048 43.8957 18.568 43.8957 16.6C43.8957 14.632 44.2397 13.152 44.9277 12.16C45.6317 11.168 46.5757 10.672 47.7597 10.672C48.9597 10.672 49.9037 11.168 50.5917 12.16C51.2957 13.152 51.6477 14.632 51.6477 16.6C51.6477 18.568 51.2957 20.048 50.5917 21.04Z" fill="#414141"/>
<path d="M59.4738 17.6843C59.1882 17.5374 58.857 17.5065 58.5467 17.5892C57.3536 17.9072 57.1668 19.6146 58.1041 20.4183C59.1196 21.289 59.7634 22.2148 60.0023 23.1642C60.4263 24.8485 59.5596 26.5424 57.497 28.0613C55.4344 29.5801 52.2549 30.8655 48.3055 31.7773C44.6187 32.6284 40.3931 33.1235 36.0338 33.2178C35.527 33.2288 35.1278 33.6578 35.1607 34.1637C35.191 34.6308 35.5809 34.9934 36.0489 34.9849C41.3393 34.8878 46.4738 34.2954 50.9433 33.2635C55.6475 32.1775 59.4344 30.6465 61.8912 28.8375C64.3479 27.0284 65.3801 25.0108 64.8752 23.0046C64.3933 21.09 62.5289 19.2559 59.4738 17.6843Z" fill="#414141"/>
<path d="M6.4534 17.5919C6.14308 17.5092 5.81193 17.5401 5.52635 17.687C2.47121 19.2586 0.606794 21.0927 0.124895 23.0074C-0.380021 25.0135 0.652185 27.0311 3.10893 28.8402C5.56568 30.6492 9.35263 32.1803 14.0568 33.2663C18.3991 34.2688 23.3692 34.8565 28.5 34.9781V36.6979L33 34.0998L28.5 31.5018V33.2089C24.3061 33.0904 20.2498 32.6008 16.6946 31.78C12.7452 30.8682 9.56572 29.5828 7.50309 28.064C5.44047 26.5451 4.57385 24.8512 4.99777 23.1669C5.23671 22.2175 5.88051 21.2917 6.896 20.421C7.83334 19.6173 7.64647 17.9099 6.4534 17.5919Z" fill="#414141"/>
</svg>

<svg width="65" height="37" fill="none" xmlns="http://www.w3.org/2000/svg"><path fill-rule="evenodd" clip-rule="evenodd" d="M56 8a4 4 0 100-8 4 4 0 000 8zm2-4a2 2 0 11-4 0 2 2 0 014 0zM32.497 14.632c1.104 0 2.096.216 2.976.648.88.416 1.568 1.016 2.064 1.8s.744 1.688.744 2.712c0 1.088-.272 2.048-.816 2.88-.544.816-1.28 1.448-2.208 1.896-.928.448-1.968.672-3.12.672-2.304 0-4.096-.72-5.376-2.16-1.264-1.44-1.896-3.504-1.896-6.192 0-1.888.344-3.496 1.032-4.824.688-1.344 1.648-2.36 2.88-3.048 1.248-.704 2.688-1.056 4.32-1.056.864 0 1.672.096 2.424.288.768.176 1.432.44 1.992.792l-1.152 2.352c-.832-.544-1.896-.816-3.192-.816-1.616 0-2.88.496-3.792 1.488-.912.992-1.368 2.424-1.368 4.296v.024c.496-.576 1.128-1.008 1.896-1.296.768-.304 1.632-.456 2.592-.456zm-.528 8.16c.976 0 1.768-.256 2.376-.768.608-.528.912-1.224.912-2.088 0-.88-.304-1.576-.912-2.088-.608-.512-1.424-.768-2.448-.768-1.008 0-1.832.272-2.472.816-.624.544-.936 1.232-.936 2.064 0 .816.304 1.496.912 2.04.624.528 1.48.792 2.568.792z" fill="#414141"/><path d="M17.208 15.136c1.552.192 2.736.72 3.552 1.584.816.864 1.224 1.944 1.224 3.24 0 .976-.248 1.864-.744 2.664s-1.248 1.44-2.256 1.92c-.992.464-2.208.696-3.648.696-1.2 0-2.36-.168-3.48-.504-1.104-.352-2.048-.832-2.832-1.44l1.344-2.424c.608.512 1.344.92 2.208 1.224.88.288 1.784.432 2.712.432 1.104 0 1.968-.224 2.592-.672.64-.464.96-1.088.96-1.872s-.304-1.392-.912-1.824c-.592-.448-1.504-.672-2.736-.672h-1.536v-2.136l3.816-4.536H9.84V8.2h11.448v2.088l-4.08 4.848z" fill="#414141"/><path fill-rule="evenodd" clip-rule="evenodd" d="M44.16 24.232c1.056.672 2.256 1.008 3.6 1.008 1.344 0 2.544-.336 3.6-1.008 1.072-.688 1.912-1.68 2.52-2.976.608-1.312.912-2.864.912-4.656 0-1.792-.304-3.336-.912-4.632-.608-1.312-1.448-2.304-2.52-2.976-1.056-.688-2.256-1.032-3.6-1.032-1.344 0-2.544.344-3.6 1.032-1.056.672-1.888 1.664-2.496 2.976-.608 1.296-.912 2.84-.912 4.632 0 1.792.304 3.344.912 4.656.608 1.296 1.44 2.288 2.496 2.976zm6.432-3.192c-.688.992-1.632 1.488-2.832 1.488-1.184 0-2.128-.496-2.832-1.488-.688-.992-1.032-2.472-1.032-4.44 0-1.968.344-3.448 1.032-4.44.704-.992 1.648-1.488 2.832-1.488 1.2 0 2.144.496 2.832 1.488.704.992 1.056 2.472 1.056 4.44 0 1.968-.352 3.448-1.056 4.44z" fill="#414141"/><path d="M59.474 17.684a1.297 1.297 0 00-.927-.095c-1.193.318-1.38 2.026-.443 2.83 1.016.87 1.66 1.796 1.898 2.745.424 1.684-.442 3.378-2.505 4.897-2.063 1.52-5.242 2.805-9.191 3.716-3.687.851-7.913 1.346-12.272 1.44a.892.892 0 00-.873.947c.03.467.42.83.888.82 5.29-.096 10.425-.689 14.894-1.72 4.705-1.087 8.491-2.618 10.948-4.427 2.457-1.809 3.49-3.826 2.984-5.832-.482-1.915-2.346-3.75-5.401-5.32zm-53.021-.092a1.297 1.297 0 00-.927.095c-3.055 1.572-4.92 3.406-5.401 5.32-.505 2.006.527 4.024 2.984 5.833 2.457 1.81 6.244 3.34 10.948 4.426 4.342 1.003 9.312 1.59 14.443 1.712v1.72L33 34.1l-4.5-2.598v1.707c-4.194-.119-8.25-.608-11.805-1.429-3.95-.912-7.13-2.197-9.192-3.716-2.063-1.519-2.93-3.213-2.505-4.897.239-.95.883-1.875 1.898-2.746.937-.804.75-2.511-.443-2.83z" fill="#414141"/></svg>
